public/svg/eiffels_logo.svg

<svg width="79" height="22" viewBox="0 0 79 22" fill="none" xmlns="http://www.w3.org/2000/svg">
  <path
    d="M39.7468 5.32687C39.1501 5.32687 38.6619 4.84348 38.6619 4.25266C38.6619 3.66183 39.1501 3.17844 39.7468 3.17844C40.3434 3.17844 40.8316 3.66183 40.8316 4.25266C40.8316 4.84348 40.3434 5.32687 39.7468 5.32687Z"
    fill="#282829" />
  <path d="M38.9512 16.8389V7.18885H40.5242V16.8389H38.9512Z" fill="#282829" />
  <path
    d="M44.1404 8.47792V16.8389H45.7134V8.47792H47.9283V7.18885H45.7134V6.15939C45.7134 5.10308 46.1654 4.55702 47.2864 4.55702C47.5667 4.55702 47.8288 4.56597 48.0187 4.60178V3.35747C47.6932 3.29481 47.3497 3.26795 46.97 3.26795C45.1167 3.26795 44.1404 4.18999 44.1404 6.11463V7.18885H42.5221V8.47792H44.1404Z"
    fill="#282829" />
  <path
    d="M50.8483 16.8389V8.47792H49.2301V7.18885H50.8483V6.11463C50.8483 4.18999 51.8247 3.26795 53.678 3.26795C54.0576 3.26795 54.4012 3.29481 54.7266 3.35747V4.60178C54.5368 4.56597 54.2746 4.55702 53.9944 4.55702C52.8734 4.55702 52.4213 5.10308 52.4213 6.15939V7.18885H54.6362V8.47792H52.4213V16.8389H50.8483Z"
    fill="#282829" />
  <path d="M67.1571 16.8389V3.35747H68.7302V16.8389H67.1571Z" fill="#282829" />
  <path
    d="M75.0946 17.009C72.9249 17.009 71.4332 15.9706 71.2524 14.3772H72.8616C73.1238 15.1828 73.9012 15.711 75.1488 15.711C76.4597 15.711 77.3908 15.0933 77.3908 14.216V14.1981C77.3908 13.5446 76.8936 13.0881 75.6912 12.8016L74.1815 12.4436C72.3553 12.0139 71.5327 11.2261 71.5327 9.83859V9.82964C71.5327 8.22726 73.0876 7.01877 75.1579 7.01877C77.201 7.01877 78.6203 8.03032 78.8373 9.60585H77.2914C77.0834 8.84494 76.3241 8.31678 75.1488 8.31678C73.9916 8.31678 73.1419 8.9076 73.1419 9.75803V9.77593C73.1419 10.4294 73.63 10.8412 74.7782 11.1187L76.2789 11.4768C78.1141 11.9154 79 12.7032 79 14.0818V14.0997C79 15.8184 77.3095 17.009 75.0946 17.009Z"
    fill="#282829" />
  <path fill-rule="evenodd" clip-rule="evenodd"
    d="M56.0013 12.0497C56.0013 15.0754 57.6828 17.009 60.4673 17.009C62.7635 17.009 64.1557 15.7199 64.4902 14.413L64.5083 14.3414H62.9353L62.8991 14.4219C62.637 15.0038 61.8233 15.6215 60.5034 15.6215C58.7677 15.6215 57.6557 14.4577 57.6105 12.4615H64.6258V11.8528C64.6258 8.97027 63.0166 7.01877 60.3678 7.01877C57.719 7.01877 56.0013 9.05978 56.0013 12.0407V12.0497ZM57.6376 11.2172C57.8094 9.38205 58.9123 8.4063 60.3588 8.4063C61.7962 8.4063 62.863 9.31044 63.0257 11.2172H57.6376Z"
    fill="#282829" />
  <path
    d="M28.0847 3.92144V16.8389H36.1668V15.3887H29.712V10.9486H35.8323V9.51633H29.712V5.37163H36.1668V3.92144H28.0847Z"
    fill="#282829" />
  <path fill-rule="evenodd" clip-rule="evenodd"
    d="M11.1088 2.24835C11.6201 2.24835 12.0345 2.65876 12.0345 3.16502C12.0345 8.23436 14.3977 12.1078 18.3671 14.6996C18.4878 14.7723 18.5875 14.8346 18.6642 14.8836C18.7205 14.9195 18.7645 14.9483 18.7953 14.9688C18.8108 14.979 18.8229 14.9872 18.8317 14.9931L18.8424 15.0004L18.8458 15.0027L18.847 15.0035L18.8475 15.0039C18.8477 15.004 18.8479 15.0042 18.3204 15.7574L18.8479 15.0042C19.2602 15.2873 19.3696 15.844 19.0948 16.2596C18.8199 16.6752 18.2608 16.7983 17.8339 16.5373C17.6803 16.4433 17.5285 16.3476 17.3787 16.2502C17.3369 16.2252 17.2922 16.1987 17.2446 16.1709C16.8807 15.9584 16.3563 15.6736 15.7222 15.3887C14.4401 14.8128 12.7754 14.2672 11.1088 14.2672C9.44215 14.2672 7.77753 14.8128 6.49538 15.3887C5.86132 15.6736 5.33694 15.9584 4.97295 16.1709C4.92542 16.1987 4.88069 16.2252 4.83887 16.2502C4.68908 16.3476 4.53734 16.4433 4.38368 16.5373C3.95684 16.7983 3.39768 16.6752 3.12281 16.2596C2.84795 15.844 2.95742 15.2873 3.36966 15.0042L3.89724 15.7574C3.36966 15.0042 3.36986 15.004 3.37007 15.0039L3.37178 15.0027L3.37519 15.0004L3.38585 14.9931C3.39465 14.9872 3.40682 14.979 3.42226 14.9688C3.45313 14.9483 3.49711 14.9195 3.55338 14.8836C3.63012 14.8346 3.72984 14.7723 3.85047 14.6996C7.81988 12.1078 10.1831 8.23435 10.1831 3.16502C10.1831 2.65876 10.5975 2.24835 11.1088 2.24835ZM11.1088 8.61321C10.5638 10.1075 9.78923 11.468 8.81511 12.6885C9.5478 12.5319 10.3209 12.4338 11.1088 12.4338C11.8967 12.4338 12.6698 12.5319 13.4025 12.6885C12.4284 11.468 11.6538 10.1075 11.1088 8.61321Z"
    fill="#282829" />
  <path fill-rule="evenodd" clip-rule="evenodd"
    d="M11.1108 17.5236C9.1251 17.5236 7.3544 18.2879 6.12335 19.4882C5.75904 19.8434 5.17292 19.8389 4.8142 19.4781C4.45549 19.1174 4.46003 18.537 4.82434 18.1818C6.40488 16.6408 8.64343 15.6903 11.1108 15.6903C13.5779 15.6903 15.8123 16.6387 17.3928 18.1775C17.7573 18.5324 17.7623 19.1128 17.4038 19.4738C17.0454 19.8348 16.4593 19.8397 16.0947 19.4847C14.8636 18.2861 13.0966 17.5236 11.1108 17.5236Z"
    fill="#282829" />
</svg>

<svg width="79" height="22" fill="none" xmlns="http://www.w3.org/2000/svg"><path d="M39.747 5.327a1.083 1.083 0 0 1-1.085-1.074c0-.591.488-1.075 1.085-1.075.596 0 1.085.484 1.085 1.075 0 .59-.489 1.074-1.085 1.074ZM38.951 16.839v-9.65h1.573v9.65h-1.573ZM44.14 8.478v8.36h1.573v-8.36h2.215v-1.29h-2.215V6.16c0-1.056.452-1.602 1.573-1.602.28 0 .543.009.733.045V3.357a5.514 5.514 0 0 0-1.049-.09c-1.853.001-2.83.923-2.83 2.848v1.074h-1.618v1.289h1.618ZM50.848 16.839V8.478H49.23v-1.29h1.618V6.116c0-1.925.977-2.847 2.83-2.847.38 0 .723.027 1.049.09v1.244a4.32 4.32 0 0 0-.733-.045c-1.12 0-1.573.546-1.573 1.602v1.03h2.215v1.289h-2.215v8.36h-1.573ZM67.157 16.839V3.357h1.573V16.84h-1.573ZM75.095 17.009c-2.17 0-3.662-1.038-3.843-2.632h1.61c.262.806 1.04 1.334 2.287 1.334 1.31 0 2.242-.618 2.242-1.495v-.018c0-.653-.497-1.11-1.7-1.396l-1.51-.358c-1.826-.43-2.648-1.218-2.648-2.605v-.01c0-1.602 1.555-2.81 3.625-2.81 2.043 0 3.462 1.011 3.68 2.587H77.29c-.208-.761-.967-1.29-2.142-1.29-1.157 0-2.007.592-2.007 1.442v.018c0 .653.488 1.065 1.636 1.343l1.5.358c1.836.438 2.722 1.226 2.722 2.605v.018c0 1.718-1.69 2.909-3.905 2.909Z" fill="#282829"/><path fill-rule="evenodd" clip-rule="evenodd" d="M56.001 12.05c0 3.025 1.682 4.959 4.466 4.959 2.297 0 3.689-1.29 4.023-2.596l.018-.072h-1.573l-.036.08c-.262.583-1.076 1.2-2.396 1.2-1.735 0-2.847-1.163-2.892-3.16h7.015v-.608c0-2.883-1.61-4.834-4.258-4.834-2.649 0-4.367 2.04-4.367 5.022v.009Zm1.637-.833c.171-1.835 1.274-2.81 2.72-2.81 1.438 0 2.505.903 2.668 2.81h-5.388Z" fill="#282829"/><path d="M28.085 3.921V16.84h8.082v-1.45h-6.455v-4.44h6.12V9.516h-6.12V5.372h6.455v-1.45h-8.082Z" fill="#282829"/><path fill-rule="evenodd" clip-rule="evenodd" d="M11.109 2.248c.511 0 .925.41.925.917 0 5.07 2.364 8.943 6.333 11.535a13.334 13.334 0 0 1 .428.269l.037.024.01.007.004.003h.001l-.527.754.528-.753c.412.283.522.84.247 1.256a.931.931 0 0 1-1.261.277c-.154-.094-.305-.19-.455-.287a16.302 16.302 0 0 0-1.656-.861c-1.283-.576-2.948-1.122-4.614-1.122-1.667 0-3.331.546-4.614 1.122a16.32 16.32 0 0 0-1.656.861c-.15.098-.302.193-.455.287a.931.931 0 0 1-1.261-.277.911.911 0 0 1 .247-1.256l.527.753-.527-.753.002-.001.003-.003.01-.007.037-.024c.031-.02.075-.05.131-.085.077-.05.177-.112.297-.184 3.97-2.592 6.333-6.466 6.333-11.535 0-.506.415-.917.926-.917Zm0 6.365a14.438 14.438 0 0 1-2.294 4.075 11.005 11.005 0 0 1 2.294-.254c.788 0 1.56.098 2.293.255a14.438 14.438 0 0 1-2.293-4.076Z" fill="#282829"/><path fill-rule="evenodd" clip-rule="evenodd" d="M11.11 17.524c-1.985 0-3.756.764-4.987 1.964a.932.932 0 0 1-1.309-.01.91.91 0 0 1 .01-1.296c1.58-1.541 3.82-2.492 6.287-2.492s4.701.949 6.282 2.487a.91.91 0 0 1 .01 1.297.932.932 0 0 1-1.308.01c-1.231-1.198-2.998-1.96-4.984-1.96Z" fill="#282829"/></svg>
